X: 39
T:Persian Dance,The,bass part. JNu.22
M:2/4
Q:50
S:James Nuttall MS,c1830,Rossendale,East Lancs.
R:Country-dance
O:England
A:East Lancashire
Z:vmp.Chris Partington
K:G
z|"thirdo,read as bass clef"eE BB,|EEEz|fd eE|BB B/A/G/F/|!
Ee BB|EGBG|AA BB,|EEE:|!
|:e/e/|ee/e/ ee/e/|BB/B/ BB/B/|eeee|BBB e/e/|!
ee/e/ ee/e/|ee/e/ BB|ee/e/ BB/B/|e/B/G/B/ E:|!
|:z|eeez|eeez|eeee|BBBz|!
eE eE|eeez|GA BD|EEE:|]
